!!!OTL: Canjia le gaojishe
!!!ARE: Asia, China,ÿJiangsu Pixian
!! III, 435
!!!SCT: C1785
!!!YEM: Copyright 1995, estate of Helmut Schaffrath.
**kern
*ICvox
*Ivox
*M2/4
*k[f#]
*G:
{8b
16b
16dd
8b
8a
=1
16b
16e
4g
8a
=2
8ee
8ee
8ee
16ee
16b
=3
2dd}
=4
{8.ee
16gg
8b
8dd
=5
8ee
8gg
8ff#
8ee
=6
8ee
16ee
16b
8dd
8ee
=7
8.dd
16ee
8cc
8b}
=8
{8b
8e
8g
8a
=9
8b
8b
4ee
=10
8b
8b
8a
16b
16a
=11
2g}
==
!!!AGN: Xiaodiao, Wugeng diao
!!!AMT: simple duple
!!!AIN: vox
!!!EED: Helmut Schaffrath
!!!EEV: 1.0
*-
